X: 3
T: Kitty Goes A-Milking
R: reel
M: 4/4
L: 1/8
K: Gmaj
|:dG~G2d2cA | dG~G2 FGAB | dG~G2 d2eg | fdcA G3B:|
|dg~g2 ag~g2 | dg~g2 d2 cA | dg~g2 ag~g2 | fdAB c2Bc |
dg~g2 ag~g2 | dg~g2 d2 cA | defg a3g |fdcA G3B||


Tune 1647	Setting 22724

